X:1
T:Pojkar och jäntor ta'n nu i ring
T:August Söderman (1832-1876)
T:Pojkar och jäntor ta'n nu i ring
T:©PA Aglert Edition may be freely distributed, duplicated, performed and recorded
T:©PA Aglert Edition may be freely distributed, duplicated, performed and recorded
T:©PA Aglert Edition may be freely distributed, duplicated, performed and recorded
T:©PA Aglert Edition may be freely distributed, duplicated, performed and recorded
T:©PA Aglert Edition may be freely distributed, duplicated, performed and recorded
C:August Söderman (1832-1876)
Z:©PA Aglert
Z:Edition may be freely distributed, duplicated, performed and recorded
%%score [ 1 2 3 4 ]
L:1/8
Q:1/4=144
M:3/4
K:A
V:1 treble nm="S"
V:2 treble nm="A"
V:3 treble-8 nm="T"
V:4 bass nm="B"
V:1
"^Allegro moderato"!mf!"^marcato" A2 A>c B>c |!<(! A2 c>!<)!e f2 | d2 c>!>(!d B>!>)!c | G2 A3 z | %4
w: Poj- kar och jän- tor|ta'n nu i ring,|svän- gen i bröl- lops-|dan- sen.|
 !>!E6 | !>!E6 | !>!E6 | E2 E3 z |!f! B2 B>B B>B | B2 B>B B2 | !>![ce]2 [ce]2 B2 | %11
w: Hej,|hej,|hej,|hej- san!|Spe- le- man han ska'|spe- la för två;|Hej- sa- sa,|
 !>![ce]2 [ce]2 B2 | B>B B>B B>B | B>B B>B B2 | !>![ce]2 [ce]2 B2 |!mf!"^marcato" !>!B2 B2 E2 | %16
w: hej- sa- sa.|Brud- de- pa- ret ut- i|rin- gen mån- de gå;|Hej- sa- sa,|Hej- sa- sa.|
 A2 A>c B>c |!<(! A2 c>!<)!e f2 | d2 c>!>(!d B>c!>)! | G2 A3 z | !>!E6 | !>!E6 | !>!E6 | E2 E3 z | %24
w: Poj- kar och jän- tor|ta'n nu i ring,|svän- gom i bröl- lops-|dan- sen.|Hej,|hej,|hej,|hej- sa!|
!f! A2 A>A A>A | A2 A>A A2 | !>![Bd]2 [Bd]2 A2 | !>![Bd]2 [Bd]2 A2 | A>A A>A A>A | A>A A>A A2 | %30
w: Så slå vi up- på|öl- tun- nan hål,|Hej- sa- sa,|hej- sa- sa.|Dric- ka där- på för vårt|bru- de- folk en skål.|
 !>![Bd]2 [Bd]2 A2 | A2 A2 D2 |!ff!"^marcato" A2 A>c B>c |!<(! A2 c>e!<)! f2 | d2 c>d B>c | %35
w: Hej- sa- sa,|hej- sa- sa!|Poj- kar och jän- tor|ta'n nu i ring,|svän- gom i bröl- lops-|
!>(! G2!>)! A4 | A2 A>c B>"^rall.""^rall.""^rall.""^rall."c | A2 c>e !fermata!g2 | %38
w: dan- sen.|Stam- pen i dam- met|ty- ker om- kring,|
"^Lento""^Lento""^Lento""^Lento" f2 d>c!>(! B>c!>)! | G2 !fermata!A4 |] %40
w: fläng till's ni mis- ten|san- sen!|
V:2
!mf!"^marcato" C2 C>E D>E |!<(! C2 E>!<)!G A2 | F2 E>!>(!F D>E!>)! | B,2 C3 z | !>!A,6 | !>!A,6 | %6
w: Poj- kar och jän- tor|ta'n nu i ring,|svän- gen i bröl- lops-|dan- sen.|Hej,|hej,|
 !>!A,6 | A,2 A,3 z |!f! B2 B>B B>B | B2 B>B B2 | !>!A2 A2 G2 | !>!A2 A2 G2 | B>B B>B B>B | %13
w: hej,|hej- san!|Spe- le- man han ska'|spe- la för två;|Hej- sa- sa,|hej- sa- sa.|Brud- de- pa- ret ut- i|
 B>B B>B B2 | !>!A2 A2 G2 |!mf!"^marcato" !>![^DF]2 [DF]2 E2 | C2 C>E D>E |!<(! C2 E>!<)!G A2 | %18
w: rin- gen mån- de gå;|Hej- sa- sa,|Hej- sa- sa.|Poj- kar och jän- tor|ta'n nu i ring,|
 F2 E>!>(!F D>!>)!E | B,2 C3 z | !>!A,6 | !>!A,6 | !>!A,6 | A,2 A,3 z |!f! A2 A>A A>A | A2 A>A A2 | %26
w: svän- gom i bröl- lops-|dan- sen.|Hej,|hej,|hej,|hej- sa!|Så slå vi up- på|öl- tun- nan hål,|
 !>!=G2 G2 F2 | !>!=G2 G2 F2 | A>A A>A A>A | A>A A>A A2 | !>!=G2 G2 F2 | !>![CE]2 [CE]2 D2 | %32
w: Hej- sa- sa,|hej- sa- sa.|Dric- ka där- på för vårt|bru- de- folk en skål.|Hej- sa- sa,|hej- sa- sa!|
!ff!"^marcato" C2 C>E D>E |!<(! C2 E>G!<)! A2 | F2 E>F D>E |!>(! B,2!>)! C4 | C2 C>E D>E | %37
w: Poj- kar och jän- tor|ta'n nu i ring,|svän- gom i bröl- lops-|dan- sen.|Stam- pen i dam- met|
 C2 E>G !fermata!B2 | A2 F>E!>(! D>!>)!E | B,2 !fermata!C4 |] %40
w: ty- ker om- kring,|fläng till's ni mis- ten|san- sen!|
V:3
!mf! !>!e6 | !>!e6 | !>!e6 | e2 e3 z |"^marcato" A2 A>c B>c | A2 c>e g2 | f2 d>c B>c | G2 A3 z | %8
w: Hej,|hej,|hej,|hej- sa!|Stam- pen så dam- met|ry- ker om- kring.|Fläng till's ni mis- ter|san- sen.|
!f! g2 g>f e>f | g2 g>f g2 | !>!e2 e2 e2 | !>!e2 e2 e2 | g>f e>f e>f | g>f e>f g2 | !>!e2 e2 e2 | %15
w: Spe- le- man han ska'|spe- la för två;|Hej- sa- sa,|hej- sa- sa.|Brud- de- pa- ret ut- i|rin- gen mån- de gå;|Hej- sa- sa,|
!mf! !>!A2 A2 G2 | !>!e6 | !>!e6 | !>!e6 | e2 e3 z | A2 A>c B>c | A2 c>e g2 | f2 d>c B>c | %23
w: Hej- sa- sa.|Hej,|hej,|hej,|hej- sa!|Stam- pen så dam- met|ry- ker om- kring.|Fläng till's ni mis- ter|
 G2 A3 z |!f! f2 f>e d>e | f2 f>e f2 | !>!d2 d2 d2 | !>!d2 d2 d2 | f>e d>e d>e | f>e d>e f2 | %30
w: san- sen.|Så slå vi up- på|öl- tun- nan hål,|Hej- sa- sa,|hej- sa- sa.|Dric- ka där- på för vårt|bru- de- folk en skål.|
 !>!d2 d2 d2 | !>!=G2 G2 F2 |!ff!"^marcato" E2 E>!courtesy!^G F>G |!<(! E2 G>B!<)! c2 | %34
w: Hej- sa- sa,|hej- sa- sa!|Poj- kar och jän- tor|ta'n nu i ring,|
 A2 G>A F>G |!>(! E2!>)! E4 | E2 E>G F>G | E2 G>B !fermata!d2 | c2 A>G!>(! F>G!>)! | %39
w: svän- gom i bröl- lops-|dan- sen.|Stam- pen i dam- met|ty- ker om- kring,|fläng till's ni mis- ten|
 E2 !fermata!E4 |] %40
w: san- sen!|
V:4
!mf! !>!A,6 | !>!A,6 | !>!A,6 | A,2 A,3 z |"^marcato" C,2 C,>E, D,>E, | C,2 E,>G, B,2 | %6
w: Hej,|hej,|hej,|hej- sa!|Stam- pen så dam- met|ry- ker om- kring.|
 A,2 F,>E, D,>E, | B,,2 C,3 z |!f! E2 E>B, G,>B, | E2 E>B, E2 | !>!A,2 A,2 [E,B,]2 | %11
w: Fläng till's ni mis- ter|san- sen.|Spe- le- man han ska'|spe- la för två;|Hej- sa- sa,|
 !>!A,2 A,2 [E,B,]2 | E>B, G,>B, G,>B, | E>B, G,>B, E2 | !>!A,2 A,2 [E,B,]2 | %15
w: hej- sa- sa.|Brud- de- pa- ret ut- i|rin- gen mån- de gå;|Hej- sa- sa,|
!mf! !>!B,,2 B,,2 E,2 | !>!A,6 | !>!A,6 | !>!A,6 | A,2 A,3 z | C,2 C,>E, D,>E, | C,2 E,>G, B,2 | %22
w: Hej- sa- sa.|Hej,|hej,|hej,|hej- sa!|Stam- pen så dam- met|ry- ker om- kring.|
 A,2 F,>E, D,>E, | B,,2 C,3 z |!f! D2 D>B, G,>B, | D2 D>A, D2 | !>!=G,2 G,2 [D,A,]2 | %27
w: Fläng till's ni mis- ter|san- sen.|Så slå vi up- på|öl- tun- nan hål,|Hej- sa- sa,|
 !>!=G,2 G,2 [D,A,]2 | D>A, F,>A, F,>A, | D>A, F,>A, D2 | !>!=G,2 G,2 [D,A,]2 | !>!A,,2 A,,2 D,2 | %32
w: hej- sa- sa.|Dric- ka där- på för vårt|bru- de- folk en skål.|Hej- sa- sa,|hej- sa- sa!|
!ff!"^marcato" A,,2 A,,2 A,,2 |!<(! A,,2 A,,2!<)! A,,2 | A,,2 A,,2 A,,2 |!>(! A,,2!>)! A,,4 | %36
w: Hej- sa- sa,|hej- sa- sa,|hej- sa- sa,|hej- sa!|
 A,,2 A,,2 A,,2 | A,,2 A,,2 !fermata!A,,2 | A,,2 A,,2!>(! A,,2!>)! | A,,2 !fermata!A,,4 |] %40
w: Hej- sa- sa,|hej- sa- sa,|hej- sa- sa,|hej- sa!|

